!!!COM: Palestrina, Giovanni Perluigi da
!!!OPR: Beatus Laurentius
!!!OTL: Kyrie
**kern	**kern	**kern	**kern	**kern
*Ibass	*Itenor	*Itenor	*Icalto	*Icant
!Bassus	!Tenor 2	!Tenor 1	!Altus	!Cantus
*clefF4	*clefGv2	*clefGv2	*clefG2	*clefG2
*k[]	*k[]	*k[]	*k[]	*k[]
*G:mix	*G:mix	*G:mix	*G:mix	*G:mix
*M4/2	*M4/2	*M4/2	*M4/2	*M4/2
=1	=1	=1	=1	=1
0r	0r	0r	0r	0dd
=2	=2	=2	=2	=2
0r	0r	0r	0g	1dd
.	.	.	.	1gg
=3	=3	=3	=3	=3
0r	0r	0r	1g	2ee
.	.	.	.	2dd
.	.	.	1cc	[1ee
=4	=4	=4	=4	=4
0r	0r	0r	1a	2ee]
.	.	.	.	4dd
.	.	.	.	4cc
.	.	.	2g	2b
.	.	.	[2a	2cc
=5	=5	=5	=5	=5
0r	0r	0d	2a]	2dd
.	.	.	1g	2b
.	.	.	.	1a
.	.	.	2f#	.
=6	=6	=6	=6	=6
0G	0r	1d	2g	2b
.	.	.	4G	2.dd
.	.	.	4A	.
.	.	1g	4B	.
.	.	.	4c	4cc
.	.	.	2d	4b
.	.	.	.	4a
=7	=7	=7	=7	=7
1G	0r	2e	1B	4g
.	.	.	.	4a
.	.	2d	.	4b
.	.	.	.	4g
1c	.	[1e	2c	4a
.	.	.	.	4g
.	.	.	2g	[2g
=8	=8	=8	=8	=8
1A	0r	2e]	2a	2g]
.	.	4d	1cc	2f#
.	.	4c	.	.
1G	.	2e	.	1g
.	.	[2d	2b	.
=9	=9	=9	=9	=9
2F#	0d	4d]	2a	1r
.	.	4c	.	.
2G	.	2B	1g	.
1D	.	1A	.	2r
.	.	.	2f#	2a
=10	=10	=10	=10	=10
1G	1d	2G	1g	2b
.	.	2d	.	2dd
2r	1g	2e	1r	2cc
2G	.	2g	.	2b
=11	=11	=11	=11	=11
2A	1e	1c	1r	1cc
1c	.	.	.	.
.	1d	1G	2r	1dd
2B	.	.	2g	.
=12	=12	=12	=12	=12
2.A	1e	1c	2a	1cc
.	.	.	1cc	.
4G	.	.	.	.
2F	1d	2A	.	2r
2G	.	2B	2b	[2gg
=13	=13	=13	=13	=13
1C	1e	1c	2g	4gg]
.	.	.	.	4ff
.	.	.	2g	4ee
.	.	.	.	4dd
1r	2r	1A	2a	4cc
.	.	.	.	4dd
.	2c	.	2cc	2ee
=14	=14	=14	=14	=14
0r	2d	0r	2b	2dd
.	1f	.	1a	4cc
.	.	.	.	4b
.	.	.	.	4cc
.	.	.	.	4b
.	2e	.	[2g	4a
.	.	.	.	4g
=15	=15	=15	=15	=15
0r	2.d	2r	2g]	1a
.	.	1d	2f#	.
.	4c	.	.	.
.	2B	.	2g	[1g
.	2c	[2c	2e	.
=16	=16	=16	=16	=16
2r	2G	2c]	1d	1g]
2G	2g	2B	.	.
2A	2f	4c	1c	2r
.	.	4d	.	.
[2c	[2e	4e	.	2cc
.	.	4f	.	.
=17	=17	=17	=17	=17
2c]	4e]	2g	2r	2ee
.	4c	.	.	.
2B	4d	2G	2g	2gg
.	4e	.	.	.
2.A	4f	2.c	2a	2ff
.	4g	.	.	.
.	[2a	.	[2cc	2ee
4G	.	4B	.	.
=18	=18	=18	=18	=18
2F	2a]	2A	2cc]	0dd
2G	1g	2B	2b	.
1D	.	1d	1a	.
.	2f#	.	.	.
=19	=19	=19	=19	=19
0G	1g	2r	0g	[0b
.	.	2d	.	.
.	2r	2e	.	.
.	2d	[2g	.	.
=20	=20	=20	=20	=20
0r	2e	4g]	2r	1b]
.	.	4f	.	.
.	2g	2e	2g	.
.	2f	2d	2a	2r
.	2e	2c	[2cc	2cc
=21	=21	=21	=21	=21
0r	1d	2.f	2cc]	2dd
.	.	.	2b	1ff
.	.	4g	.	.
.	1c	2a	2.cc	.
.	.	[2g	.	2ee
.	.	.	4b	.
=22	=22	=22	=22	=22
2r	1d	2g]	1a	1dd
2D	.	2f#	.	.
2E	1r	1g	2g	2cc
[2G	.	.	[2d	4b
.	.	.	.	4a
=23	=23	=23	=23	=23
4G]	0G	2.g	2d]	1b
4F	.	.	.	.
4E	.	.	2e	.
4D	.	4f	.	.
2C	.	2e	2.g	2r
2G	.	2d	.	2dd
.	.	.	4f	.
=24	=24	=24	=24	=24
0C	1G	4c	4e	2ee
.	.	4d	4d	.
.	.	4e	4c	2.gg
.	.	4f	4d	.
.	1c	2g	4e	.
.	.	.	4f	4ff
.	.	2G	[2g	2ee
=25	=25	=25	=25	=25
1D	1A	2r	2g]	2.dd
.	.	1d	2f#	.
.	.	.	.	4cc
2G	1G	.	1g	1b
2E	.	2e	.	.
=26	=26	=26	=26	=26
2F	1A	2c	1f	2a
2D	.	2d	.	1dd
1E	1G	2B	2e	.
.	.	2G	[2g	2cc
=27	=27	=27	=27	=27
0D	0A	0d	2g]	1.dd
.	.	.	4f#	.
.	.	.	4e	.
.	.	.	1f#	.
.	.	.	.	2a
=28	=28	=28	=28	=28
1G	2G	2r	[0g	2b
.	2d	2B	.	1dd
1E	2e	2c	.	.
.	2c	[2e	.	[2cc
=29	=29	=29	=29	=29
1G	1d	2e]	0g]	2cc]
.	.	1d	.	2b
1C	1e	.	.	1cc
.	.	[2c	.	.
=30	=30	=30	=30	=30
[0G	[0d	2c]	[0g	[0dd
.	.	4B	.	.
.	.	4A	.	.
.	.	1B	.	.
=31	=31	=31	=31	=31
0G]	0d]	0B	0g]	0dd]
=32	=32	=32	=32	=32
0r	0r	1c	1g	0cc
.	.	2f	2a	.
.	.	2e	2g	.
=33	=33	=33	=33	=33
0r	0r	2f	2a	1cc
.	.	1a	1cc	.
.	.	.	.	1ee
.	.	4g	4b	.
.	.	4f	4a	.
=34	=34	=34	=34	=34
0r	0r	2e	2g	1ee
.	.	2c	1cc	.
.	.	[1g	.	1dd
.	.	.	4b	.
.	.	.	4a	.
=35	=35	=35	=35	=35
0r	1G	0g]	1b	2dd
.	.	.	.	2dd
.	2c	.	2r	2ee
.	2B	.	2g	2dd
=36	=36	=36	=36	=36
0r	2c	1g	2.e	2ee
.	1e	.	.	1gg
.	.	.	4f	.
.	.	2e	2g	.
.	4d	2f	[2a	4ff
.	4c	.	.	4ee
=37	=37	=37	=37	=37
0r	2B	1g	4a]	2dd
.	.	.	4g	.
.	2c	.	1g	1ee
.	1A	1c	.	.
.	.	.	2f	4dd
.	.	.	.	4cc
=38	=38	=38	=38	=38
1C	1G	0c	2g	4ee
.	.	.	.	4dd
.	.	.	2e	4cc
.	.	.	.	4b
2F	2r	.	2f	2a
2E	2c	.	2g	2g
=39	=39	=39	=39	=39
2F	2.A	1c	2f	2a
1A	.	.	2e	1cc
.	4B	.	.	.
.	4c	1e	2A	.
.	4d	.	.	.
4G	4e	.	2B	4b
4F	4f	.	.	4a
=40	=40	=40	=40	=40
2E	1.g	1e	1G	2b
2C	.	.	.	1cc
1G	.	1d	2r	.
.	2d	.	[2g	2b
=41	=41	=41	=41	=41
2r	2.e	2c	4g]	0cc
.	.	.	4f	.
2.c	.	2.e	4e	.
.	4f	.	4d	.
.	2g	.	2c	.
4B	.	4d	.	.
4A	[2a	4c	2e	.
4G	.	4B	.	.
=42	=42	=42	=42	=42
2F	2a]	2A	2f	2r
2A	2a	2c	2.e	2cc
2G	1d	2B	.	1dd
.	.	.	4d	.
2F	.	2A	[2d	.
=43	=43	=43	=43	=43
1E	1g	2B	2d]	1ee
.	.	2c	1c	.
1D	2f	1d	.	1ff
.	2d	.	2B	.
=44	=44	=44	=44	=44
0C	2e	4g	0c	1ee
.	.	4f	.	.
.	2.g	4e	.	.
.	.	4d	.	.
.	.	2e	.	2r
.	4f	.	.	.
.	4e	2c	.	[2gg
.	4d	.	.	.
=45	=45	=45	=45	=45
0r	2c	1g	2r	4gg]
.	.	.	.	4ff
.	2e	.	2.cc	4ee
.	.	.	.	4dd
.	2f	1a	.	2cc
.	.	.	4b	.
.	2c	.	4a	2ee
.	.	.	4g	.
=46	=46	=46	=46	=46
0r	1d	2r	2f	2dd
.	.	4f	2a	2cc
.	.	4e	.	.
.	1G	4d	2g	1b
.	.	4c	.	.
.	.	[2d	2f	.
=47	=47	=47	=47	=47
1r	1A	2d]	1e	2a
.	.	2c	.	2ee
2r	1d	4d	1d	2ff
.	.	4c	.	.
[2G	.	4B	.	2gg
.	.	4A	.	.
=48	=48	=48	=48	=48
4G]	2d	1B	1r	2dd
4F	.	.	.	.
4E	2.e	.	.	2.gg
4D	.	.	.	.
2C	.	1c	2r	.
.	4f	.	.	4ff
2E	2g	.	[2cc	4ee
.	.	.	.	4dd
=49	=49	=49	=49	=49
1.F	1.a	2.A	4cc]	0cc
.	.	.	4b	.
.	.	.	4a	.
.	.	4B	4g	.
.	.	1c	2f	.
2E	2g	.	2g	.
=50	=50	=50	=50	=50
2.F	4f	2A	1a	1cc
.	4c	.	.	.
.	2.f	2.a	.	.
4E	.	.	.	.
[1D	.	.	2.f	2dd
.	4e	4g	.	.
.	[2d	4f	.	[2ff
.	.	4e	4g	.
=51	=51	=51	=51	=51
2D]	2d]	2d	0a	2ff]
2A	2c	2e	.	1ee
1D	1d	1f	.	.
.	.	.	.	2dd
=52	=52	=52	=52	=52
1A	4c	1e	2a	1ee
.	4d	.	.	.
.	4e	.	2cc	.
.	4f	.	.	.
1r	2g	1r	2b	2.dd
.	2d	.	[2a	.
.	.	.	.	4cc
=53	=53	=53	=53	=53
2r	1e	2r	2a]	1b
2E	.	2e	2g#	.
2F	2r	2A	1a	[1a
4D	2d	[2f	.	.
4E	.	.	.	.
=54	=54	=54	=54	=54
4F	2A	2f]	0r	1a]
4G	.	.	.	.
1A	1c	4e	.	.
.	.	4d	.	.
.	.	2c	.	1r
4G	4B	[2d	.	.
4F	4A	.	.	.
=55	=55	=55	=55	=55
1E	1G	2d]	2r	1ee
.	.	2c#	2e	.
1D	1A	[1d	2f	2a
.	.	.	4d	[2ff
.	.	.	4e	.
=56	=56	=56	=56	=56
0r	0r	2d]	4f	2ff]
.	.	.	4g	.
.	.	4c	1a	4ee
.	.	4B	.	4dd
.	.	1A	.	2cc
.	.	.	4g	[2dd
.	.	.	4f	.
=57	=57	=57	=57	=57
1A	2r	2r	1e	2dd]
.	2e	2.a	.	2cc#
2D	2f	.	1r	[1dd
.	.	4g	.	.
[2B-	4d	4f	.	.
.	4e	4e	.	.
=58	=58	=58	=58	=58
2B-]	4f	2d	0r	2dd]
.	4g	.	.	.
4A	1a	2.f	.	4cc
4G	.	.	.	4b
2F	.	.	.	2cc
.	.	4e	.	.
2G	4g	[2d	.	2b
.	4f	.	.	.
=59	=59	=59	=59	=59
1A	1e	2d]	2r	0a
.	.	2c#	2e	.
1D	4d	1d	2f	.
.	4e	.	.	.
.	4f	.	4d	.
.	4g	.	4e	.
=60	=60	=60	=60	=60
1D	2a	1.d	4f	2r
.	.	.	4g	.
.	2d	.	4a	2a
.	.	.	4f	.
2G	2B	.	[1g	2b
2C	[2e	2c	.	4g
.	.	.	.	4a
=61	=61	=61	=61	=61
1.G	2e]	2.B	1g]	4b
.	.	.	.	4cc
.	4d	.	.	1dd
.	4c	4c	.	.
.	2B	2d	[1g	.
2C	2c	2e	.	[2cc
=62	=62	=62	=62	=62
1G	1d	1d	1g]	2cc]
.	.	.	.	2b
[1C	[1e	[1c	[1g	[1cc
=63	=63	=63	=63	=63
1C]	1e]	1c]	1g]	1cc]
1r	1r	1G	[1g	1dd
=64	=64	=64	=64	=64
1r	1r	1c	1g]	1ee
1r	1r	2B	1g	2dd
.	.	[2c	.	[2ee
=65	=65	=65	=65	=65
1r	1r	4c]	1e	4ee]
.	.	4B	.	4dd
.	.	2A	.	2cc
1r	1r	2G	2g	2b
.	.	2F#	[2a	2a
=66	=66	=66	=66	=66
1r	1r	1G	2a]	2.b
.	.	.	1g	.
.	.	.	.	4cc
1D	[1d	1A	.	2dd
.	.	.	2f#	2a
=67	=67	=67	=67	=67
1G	1d]	2G	1g	2.b
.	.	2B	.	.
.	.	.	.	4cc
2F#	1d	2A	2r	1dd
[2G	.	2G	2d	.
=68	=68	=68	=68	=68
4G]	1B	2d	1g	1r
4F	.	.	.	.
2E	.	2e	.	.
2D	2d	2A	2f	1r
2C	[2e	2c	[2g	.
=69	=69	=69	=69	=69
1D	2e]	2A	4g]	1r
.	.	.	4f	.
.	1d	2a	2f	.
1A	.	2.a	1e	1r
.	2c#	.	.	.
.	.	4g	.	.
=70	=70	=70	=70	=70
1D	2d	4f	2d	0dd
.	.	4e	.	.
.	2d	4d	2a	.
.	.	4c	.	.
1r	1g	4B	1b	.
.	.	4A	.	.
.	.	2G	.	.
=71	=71	=71	=71	=71
1r	2f#	2d	2a	1dd
.	2.g	2G	1b	.
1r	.	1g	.	1b
.	4f	.	.	.
.	2e	.	2g	.
=72	=72	=72	=72	=72
1r	2d	2f	2a	2dd
.	2c	2.g	2cc	1ee
1r	1d	.	2b	.
.	.	4f	.	.
.	.	2f	4a	[2dd
.	.	.	4g	.
=73	=73	=73	=73	=73
1r	1A	1e	1a	2dd]
.	.	.	.	2cc#
[1G	2.B	2d	1r	1dd
.	.	2d	.	.
.	4c	.	.	.
=74	=74	=74	=74	=74
2G]	2d	2B	1.g	1r
2E	2G	2e	.	.
2G	2B	2d	.	1r
2A	2c	2c	2e	.
=75	=75	=75	=75	=75
2G	1d	2B	2g	1r
2F#	.	2A	2a	.
2G	2B	2d	2g	1r
[2F	2A	[2f	[2a	.
=76	=76	=76	=76	=76
2F]	2.c	2f]	2a]	1r
2C	.	2e	1g	.
.	4B	.	.	.
1D	2A	2.d	.	1r
.	[2d	.	2f#	.
.	.	4c	.	.
=77	=77	=77	=77	=77
0G	2d]	4B	0g	1.dd
.	.	4A	.	.
.	2B	2G	.	.
.	2d	2r	.	.
.	2e	2g	.	2b
=78	=78	=78	=78	=78
1r	2d	2f	2r	2dd
.	2c	2e	2g	2ee
1r	2d	1a	2f	2dd
.	[2c	.	2e	[2ee
=79	=79	=79	=79	=79
1r	2c]	2.g	2cc	2ee]
.	2G	.	2b	2.dd
.	.	4f	.	.
1r	1A	2e	2a	.
.	.	.	.	4cc
.	.	2c	2f#	[2cc
=80	=80	=80	=80	=80
1r	1G	2d	1.g	2cc]
.	.	2g	.	2b
1c	1r	2e	.	[1cc
.	.	[2g	2e	.
=81	=81	=81	=81	=81
1A	1r	2g]	1a	0cc]
.	.	1f	.	.
[1c	2r	.	1g	.
.	2g	2e	.	.
=82	=82	=82	=82	=82
2c]	2e	2c	1r	1r
2B	2.g	1d	.	.
1G	.	.	1g	1r
.	4f	.	.	.
.	4e	[2e	.	.
.	4d	.	.	.
=83	=83	=83	=83	=83
1A	1c	4e]	1e	1r
.	.	4d	.	.
.	.	1c	.	.
1G	1d	.	1g	1r
.	.	2B	.	.
=84	=84	=84	=84	=84
1r	1c	2.A	2f	1cc
.	.	.	4e	.
.	.	4B	4d	.
1r	1r	2c	2e	1a
.	.	2d	2f	.
=85	=85	=85	=85	=85
1r	1r	2e	2g	1.cc
.	.	2f	2a	.
1r	1r	2e	2.g	.
.	.	[2g	.	2b
.	.	.	4f	.
=86	=86	=86	=86	=86
1r	1r	4g]	2e	1g
.	.	4f	.	.
.	.	2e	1g	.
1r	2r	1d	.	1a
.	[2d	.	2f#	.
=87	=87	=87	=87	=87
1G	2d]	2B	[0g	1g
.	2B	2d	.	.
1E	1e	2c	.	1r
.	.	4B	.	.
.	.	4A	.	.
=88	=88	=88	=88	=88
1.G	2.d	1B	1g]	2r
.	.	.	.	2dd
.	4c	.	.	.
.	4d	1r	2r	2b
.	4e	.	.	.
2F	4f	.	2a	[2dd
.	4g	.	.	.
=89	=89	=89	=89	=89
2D	1a	1r	2f	2dd]
1F	.	.	1a	2cc
.	2f	1c	.	2a
2E	2g	.	2g	[2cc
=90	=90	=90	=90	=90
1F	1a	1A	1f	4cc]
.	.	.	.	4b
.	.	.	.	4cc
.	.	.	.	4dd
1C	[1g	[1c	2.e	1ee
.	.	.	4f	.
=91	=91	=91	=91	=91
0G	2g]	2c]	4g	0dd
.	.	.	4a	.
.	2G	2B	4b	.
.	.	.	4cc	.
.	2.B	1G	4b	.
.	.	.	4a	.
.	.	.	[2g	.
.	4c	.	.	.
=92	=92	=92	=92	=92
1D	1d	1A	2g]	1dd
.	.	.	2f#	.
[1G	[1d	[1G	[1g	[1b
=93	=93	=93	=93	=93
1G]	1d]	1G]	1g]	1b]
==	==	==	==	==
*-	*-	*-	*-	*-
!!!CDT: 1525/^1526/-1594/2/2
!!!OCY: Italia
!!!AGN: Mass (Paraphrase)
!!!AST: renaissance, vocal
!!!ASW: Antiphon
!!!PWK: Masses, Book 8
!!!RNB: Cadence finals: C
!!!YOR: Le Opere Complete, v. 24, p. 194
!!!YOO: Rome, Italy: Fratelli Scalera
!!!END: 1992//
!!!EED: John Miller
!!!YEC: Copyright 2000, John Miller
!!!YEN: United States of America
!!!YEM: Rights to all derivative electronic formats reserved.
!!!YEM: Refer to licensing agreement for further details.
!!!YEM: This file must be accompanied by the licensing agreement.
!!!YEM: A copy of the licensing agreement may be found at http://www.music-cog.ohio-state.edu/HumdrumDatabases/Palestrina/license.txt
!!!EMD: converted to Humdrum by Bret Aarden
